assets/icons/qvision/flash_auto.svg

<svg width="24" height="24" viewBox="0 0 24 24" fill="none" xmlns="http://www.w3.org/2000/svg">
<g clip-path="url(#clip0_147_3461)">
<path d="M3 2V14H6V23L13 11H9L13 2H3ZM19 2H17L13.8 11H15.7L16.4 9H19.6L20.3 11H22.2L19 2ZM16.85 7.65L18 4L19.15 7.65H16.85Z" fill="#323232"/>
</g>
<defs>
<clipPath id="clip0_147_3461">
<rect width="24" height="24" fill="white"/>
</clipPath>
</defs>
</svg>

<svg xmlns="http://www.w3.org/2000/svg" height="24" viewBox="0 0 24 24" width="24"><path d="M0 0h24v24H0z" fill="none"/><path d="M3 2v12h3v9l7-12H9l4-9H3zm16 0h-2l-3.2 9h1.9l.7-2h3.2l.7 2h1.9L19 2zm-2.15 5.65L18 4l1.15 3.65h-2.3z"/></svg>
